X: 31311
T: Paddy Kelly's
R: reel
M: 4/4
K: Gdorian
G2dG eGdG|EFcF dFcF|DG~G2 eGdG|FGAc fcA^F|
DG~G2 DG=B,G|~F2CF A,CFA|GFDE FGAc|1 fcA^F GDEF:|2 fcA^F GABc||
|:dggf ~g3a|(3bag (3agf gfdB|cFAc ~f3g|afgf dcAc|
dggf ~g3a|(3bag (3agf gfde|(3fga fa ~g2fd|1 cA^FA GABc:|2 cA^FA GDEF||

